X:1
T:Nassau, 77.77.77
T:Nassau, 77.77.77
T:Johann Rosenmüller (1615–1686)
T:Public Domain Courtesy of the Cyber Hymnal™
C:Johann Rosenmüller (1615–1686)
Z:Public Domain
Z:Courtesy of the Cyber Hymnal™
%%score ( 1 2 ) 3
L:1/8
Q:1/4=112
M:4/4
K:Eb
V:1 treble 
V:2 treble 
V:3 bass 
V:1
 [EG]2 [EG]2 [FB]2 [DB]2 | E2 [DF]2 [EG]4 | [Ec]2 [Fd]2 [Ee]2 [EG]2 | [EF]2 [DF]2 E4 | %4
 [DB]2 [B,F]2 [EG]2 [FG]2 | [=Ec]2 [CG]2 [F=A]4 | [FB]2 [DF]2 (G=A) [DB]2 | [Gc]2 c2 [DB]4 | %8
 [Fc]2 [Fd]2 [Ee]2 [DG]2 | [CG]2 [CF]2 [=B,G]4 | [Cc]2 [Fd]2 [Ee]2 [EG]2 | [EF]2 [DF]2 E4 |] %12
V:2
 x8 | E2 x6 | x8 | x4 E4 | x8 | x8 | x4 E2 x2 | x2 (FE) x4 | x8 | x8 | x8 | x4 E4 |] %12
V:3
 [E,B,]2 [E,B,]2 [D,B,]2 [B,,B,]2 | [C,G,]2 [B,,B,]2 [E,B,]4 | [A,C]2 [F,A,]2 [C,G,]2 [C,C]2 | %3
 [A,,C]2 [B,,B,]2 [E,G,]4 | [B,,F,]2 [D,B,]2 [E,B,]2 [D,=B,]2 | [C,C]2 [=E,C]2 [F,C]4 | %6
 [D,B,]2 [B,,B,]2 [E,B,]2 [G,B,]2 | [E,B,]2 [F,=A,]2 [B,,B,]4 | [F,A,]2 [B,,A,]2 [C,G,]2 [C,G,]2 | %9
 [B,,E,]2 [A,,C,]2 [G,,D,]4 | [A,,A,]2 [F,A,]2 [C,G,]2 [B,,B,]2 | [A,,C]2 [B,,B,]2 [E,G,]4 |] %12

